packages/ffe-icons/icons/filled/sm/enterprise.svg

<svg xmlns="http://www.w3.org/2000/svg" height="20" viewBox="0 -960 960 960" width="20"><path d="M180.309-164.001q-27.008 0-45.658-18.65-18.65-18.65-18.65-45.658v-407.382q0-27.008 18.65-45.658 18.65-18.65 45.658-18.65h175.692v-59.903q0-27.095 18.676-45.595t45.72-18.5h119.558q27.044 0 45.544 18.65 18.5 18.65 18.5 45.657v59.691h175.692q27.008 0 45.658 18.65 18.65 18.65 18.65 45.658v407.382q0 27.008-18.65 45.658-18.65 18.65-45.658 18.65H180.309ZM408-699.999h144v-59.691q0-4.616-3.846-8.462-3.847-3.847-8.463-3.847H420.309q-4.616 0-8.463 3.847Q408-764.306 408-759.69v59.691Zm72.212 329.998q25.942 0 43.864-18.135 17.923-18.135 17.923-44.076 0-25.942-18.135-43.864-18.135-17.923-44.076-17.923-25.942 0-43.864 18.135-17.923 18.135-17.923 44.076 0 25.942 18.135 43.864 18.135 17.923 44.076 17.923Z"/></svg>

<svg xmlns="http://www.w3.org/2000/svg" height="20" viewBox="0 -960 960 960" width="20"><path d="M180.31-164q-27.01 0-45.66-18.65Q116-201.3 116-228.31v-407.38q0-27.01 18.65-45.66Q153.3-700 180.31-700H356v-59.9q0-27.1 18.68-45.6Q393.35-824 420.4-824h119.56q27.04 0 45.54 18.65t18.5 45.66V-700h175.69q27.01 0 45.66 18.65Q844-662.7 844-635.69v407.38q0 27.01-18.65 45.66Q806.7-164 779.69-164H180.31ZM408-700h144v-59.69q0-4.62-3.85-8.46-3.84-3.85-8.46-3.85H420.31q-4.62 0-8.46 3.85-3.85 3.84-3.85 8.46V-700Zm72.21 330q25.94 0 43.87-18.14Q542-406.27 542-432.21t-18.14-43.87Q505.73-494 479.79-494t-43.87 18.14Q418-457.73 418-431.79t18.14 43.87Q454.27-370 480.21-370Z"/></svg>
